icons/unity-panel/22x22/panel/audio-volume-muted-blocking-panel.svg

<svg version="1.1" viewBox="0 0 22 22" xmlns="http://www.w3.org/2000/svg">
 <path d="m17.771 3-14.474 14.474 0.52331 0.52553 3.6064-3.6053 3.5742 3.6053v-7.2l2.3682-2.3487c0.51997 0.60347 0.82059 1.3662 0.82059 2.1678 0 0.88628-0.35184 1.7358-0.97981 2.3627l-0.39304 0.39304 0.78719 0.78719 0.39415-0.39304c0.83556-0.83531 1.305-1.9684 1.3049-3.1499 0-1.0967-0.41976-2.1411-1.1468-2.955l1.5833-1.5833c1.1482 1.2326 1.7877 2.8538 1.7904 4.5383 3.9e-5 1.772-0.70409 3.4715-1.9574 4.7242l-0.39415 0.39304 0.78719 0.78719 0.39415-0.39304c1.4616-1.4618 2.2827-3.4443 2.2825-5.5114-0.0027-1.9795-0.75909-3.8837-2.1155-5.3255l1.7681-1.7681zm-6.7706 0-4.103 4.1597h-2.9272s-0.96979 0.9954-0.96979 3.3425c0 2.3471 0.96979 3.338 0.96979 3.338h1.5833l5.4469-5.2439z" fill="#da1636" stroke-width="1.1134"/>
</svg>

<svg viewBox="0 0 22 22" xmlns="http://www.w3.org/2000/svg"><path d="M17.771 3 3.297 17.474 3.82 18l3.607-3.606L11 18v-7.2l2.368-2.35c.52.604.82 1.367.82 2.169 0 .886-.351 1.735-.98 2.362l-.392.393.787.788.394-.393a4.453 4.453 0 0 0 1.305-3.15 4.44 4.44 0 0 0-1.147-2.955L15.74 6.08a6.674 6.674 0 0 1 1.79 4.539 6.68 6.68 0 0 1-1.957 4.724l-.395.393.788.787.394-.393a7.794 7.794 0 0 0 2.282-5.511 7.788 7.788 0 0 0-2.115-5.326l1.768-1.768zm-6.77 0L6.896 7.16H3.97S3 8.155 3 10.502s.97 3.338.97 3.338h1.584L11 8.596z" fill="#da1636"/></svg>
